X:183
% The song with calculated Accords
T:ALINE. CJF.003
O:england
M:2/4
L:1/8
Q:1/4=160
S: C.J.Fox MS, 1829/33, Beverley,E.Yorks.
R:Air
A:East Yorkshire
B:Kidson Coll.Mitchell Lib.M1805
K:C
"G"(G/F/)|"C"(EG).G.c|"G"{d/}(c/B/c/d/) ee/f/|"G"gceG|"F"(A2GG/F/)|"C"(EG)(Gc)|\
"G"{d/}(c/B/c/d/) ee/f/|"G".g(cd)(B|"C"c2)z||
"C"e|"G"dcBc|"C"{e/}d/^c/d/e/ dg|"F"^fac'c'|"G"b2ge|"G"dcBc|"G"d/^c/d/e/ dg|\
"F"^fc'af|"G"g2z||
"C"(e|"F"f)(^G=G)(e|"F"f)(^G=G)e|\
"G"dd d/c/B/A/|"F"(A2G) (e|"F"f)(^G=G)(e|"F"f)(^G=G)e|"G"dd d/c/B/A/|
"F"(A2G)(B/A/|"G"G)(d/c/ B)(f/e/|"C"e)a/g/ ff/(e/|"G"d)f/e/\
"G"d/c/B/A/|"G"G/^F/G/F/ G/A/G/=F/||


